X:1
T:Title
%%score 1 2 3
L:1/8
M:2/2
K:C
V:1 treble nm="Part_1"
V:2 treble-8 nm="Part_2"
V:3 treble-8 nm="Part_3"
V:1
 F8 | C8- | C8 | D4 E4 | F8 | E4 A4 | G2 F2 F4- | F4 E4 | F8- | F8 | z8 | z8 | E8- | E8 | F8- | %15
 F8 | G8- | G8 | G4 A4- | A2 G2 F4- | F4 E4- | E4 D4 | E8- | E8 | z8 | z8 | D8- | D4 A4- | A4 G4 | %29
 F8 | E4 F4 | G4 A4- | A2 G2 G4- | G4 ^F4 | G6 _B2- | B2 A2 F4 | E4 F4 | G2 E4 D2 | F8- | F8 | %40
 z4 F4 | C4 D4- | D2 E2 F4- | F4 F4 | F8 | E8 | F4 G4- | G4 A4 | G4 A4- | A2 E2 F4 | G8 | z4 C4 | %52
 D4 E4 | F4 G4- | G2 F2 E4- | E4 D4 | E8 |] %57
V:2
[K:F] F8 | F6 G2 | A8 | B4 c4 | A4 B4 | c6 B2 | c4 A4 | G8 | F8 | z4 A4 | B2 G4 c2- | %11
 c2 =B2 B2 A2 | c6 B2 | G2 c4 B2 | A2 B2 c2 d2- | d2 c2 A4 | G2 c4 B2 | G2 E2 C2 G2 | B4 c4 | %19
 (3:2:2d8 c4 | A2 =B2 c3 B | A2 G2 F4 | E2 A4 c2- | c2 d2 c3 =B | d4 B4 | A8 | G2 B4 c2 | %27
 A4 z2 d2 | c2 A2 B4 | A4 B4 | c2 B2 A4 | G4 c4- | c2 B2 G4 | A8 | G8 | z4 D4 | A8 | G8 | F8 | z8 | %40
 E4 D4 | F6 E2 | F2 G2 A4 | B2 d4 c2 | A2 B4 A2 | c4 z4 | A4 G4 | c8 | B4 c4 | A8 | G4 z4 | A8 | %52
 B4 c4 | A4 G4 | E8 | F8 | E8 |] %57
V:3
[K:F] c8 | A4 F4- | F2 E2 F4 | D4 C4 | F4 D4 | C4 F4 | C4 F4 | C8 | z4 c4 | A4 F4 | G4 E4 | D8 | %12
 C8- | C8 | D8- | D8 | E4 C4 | z2 c4 B2 | G4 F4 | D8 | D4 C4 | c2 =B4 A2 | =B2 c4 A2- | A2 A2 A4 | %24
 D4 G4- | G2 F4 E2 | G8 | D8 | F4 G4 | D8 | C4 D4 | E4 F4 | E8 | D8 | z4 d4- | d4 d4 | c4 F4 | C8 | %38
 z4 c4 | A4 F4 | G4 A4- | A2 G2 A4 | D8- | D8 | D8 | C8 | D4 E4 | C4 F4 | G4 F4 | c8 | d4 G4 | F8 | %52
 D4 C4 | c4 =B4- | B4 =B4 | A6 G2 | =B8 |] %57

